assets/Person getting haircut/Medium-Dark/Flat/person_getting_haircut_flat_medium-dark.svg

<svg width="32" height="32" viewBox="0 0 32 32" fill="none" xmlns="http://www.w3.org/2000/svg">
<path d="M24.93 3L23.5292 7.84087L23.6837 8.89844L23.922 9.01172L24.7081 8.17998L25.84 4.25C25.99 3.75 25.7 3.22 25.19 3.08L24.93 3Z" fill="#D3D3D3"/>
<path d="M23.65 5.21014C23.8699 4.92014 24.32 5.08014 24.32 5.44014C24.32 6.88014 22.12 8.48014 21.16 8.94014C21.19 9.48014 21.12 10.5001 20.81 10.9501C20.62 11.2201 20.52 11.5401 20.52 11.8701V12.4201C20.4303 12.354 18.5 13.8392 18.5 13.8392C18.5 13.8392 19.3215 16.1032 20.5299 15.2201V16.2001C20.5299 17.1001 19.9899 17.9101 19.1799 18.2701C19.526 17.5168 12.81 16.695 9.74007 18.3001C8.89007 17.9601 8.32007 17.1301 8.32007 16.2001V15.2301C8.92217 15.6538 9.74007 13.8392 9.74007 13.8392C9.74007 13.8392 9 12.5001 8.31995 12.4001V11.8701C8.31995 11.5401 8.21995 11.2201 8.02995 10.9501C7.51995 10.2101 7.42995 9.22014 7.87995 8.38014C8.18995 7.80014 8.68995 7.40014 9.25995 7.20014C9.86995 6.99014 10.38 6.58014 10.72 6.04014C11.15 5.35014 11.93 4.89014 12.81 4.89014C13.15 4.89014 13.48 4.96014 13.78 5.09014C14.19 5.26014 14.65 5.26014 15.05 5.09014C15.35 4.96014 15.68 4.89014 16.02 4.89014C16.92 4.89014 17.71 5.37014 18.14 6.08014C18.36 6.43014 18.65 6.72014 19 6.93014C20.79 7.56014 23.1299 5.88014 23.65 5.21014Z" fill="#2D242D"/>
<path d="M3 30C3 24.201 7.70101 19.5 13.5 19.5H15.5C21.299 19.5 26 24.201 26 30H3Z" fill="#FF6723"/>
<path d="M14.4199 22.5C13.1899 22.5 12.1899 21.5 12.1899 20.27V18.8H16.6599V20.27C16.6499 21.5 15.6499 22.5 14.4199 22.5Z" fill="#8B5C56"/>
<path d="M11.0698 13.8201C11.0698 14.7811 10.2908 15.5601 9.32984 15.5601C8.36887 15.5601 7.58984 14.7811 7.58984 13.8201C7.58984 12.8591 8.36887 12.0801 9.32984 12.0801C10.2908 12.0801 11.0698 12.8591 11.0698 13.8201Z" fill="#8B5C56"/>
<path d="M21.25 13.8201C21.25 14.7811 20.471 15.5601 19.51 15.5601C18.549 15.5601 17.77 14.7811 17.77 13.8201C17.77 12.8591 18.549 12.0801 19.51 12.0801C20.471 12.0801 21.25 12.8591 21.25 13.8201Z" fill="#8B5C56"/>
<path d="M9.04749 12.1006L9.04995 12.1002V11.2402C9.04995 9.2802 10.6399 7.7002 12.5899 7.7002H13.9399C14.2299 7.7002 14.4899 7.8802 14.5899 8.1402C15.0099 9.0602 15.9299 9.6502 16.9399 9.6502H18.4199C19.2299 9.6902 19.8699 10.3502 19.8899 11.1602L19.8299 12.1202C19.8336 12.1202 19.8372 12.1215 19.8408 12.1232L19.5274 17.0802C19.2569 19.1202 17.504 20.6502 15.4406 20.6502H13.4574C11.394 20.6502 9.64107 19.1302 9.37062 17.0802L9.04749 12.1006Z" fill="#966661"/>
<path d="M14.0298 13.52L13.4798 15.3C13.3698 15.66 13.6398 16.03 14.0198 16.03H14.8298C15.2098 16.03 15.4798 15.66 15.3698 15.3L14.8198 13.52C14.7098 13.13 14.1498 13.13 14.0298 13.52Z" fill="#75443E"/>
<path d="M14.4299 17.0399C13.8699 17.0399 13.3399 16.8999 12.8899 16.6699C12.7399 16.5899 12.5799 16.7599 12.6699 16.9099C13.0399 17.4899 13.6899 17.8699 14.4299 17.8699C15.1699 17.8699 15.8199 17.4899 16.1899 16.9099C16.2799 16.7699 16.1199 16.5899 15.9699 16.6699C15.5199 16.8999 14.9999 17.0399 14.4299 17.0399Z" fill="#990838"/>
<path d="M17.9007 11.6036C17.9493 11.6405 18.0087 11.6606 18.0697 11.6606C18.1281 11.661 18.1851 11.643 18.2328 11.6092C18.2804 11.5755 18.3163 11.5276 18.3353 11.4724C18.3542 11.4172 18.3554 11.3574 18.3387 11.3015C18.3219 11.2455 18.288 11.1963 18.2417 11.1606C17.665 10.7622 16.9606 10.5926 16.2657 10.6846C16.2293 10.689 16.1941 10.7005 16.1621 10.7185C16.1301 10.7365 16.102 10.7606 16.0794 10.7895C16.0569 10.8184 16.0402 10.8515 16.0305 10.8869C16.0207 10.9223 16.0181 10.9592 16.0227 10.9956C16.0265 11.0323 16.0377 11.0679 16.0555 11.1001C16.0733 11.1324 16.0975 11.1608 16.1265 11.1836C16.1555 11.2063 16.1888 11.223 16.2244 11.2327C16.26 11.2423 16.2972 11.2447 16.3337 11.2396C16.8827 11.1705 17.4384 11.2996 17.9007 11.6036Z" fill="#372128"/>
<path d="M10.6277 11.6092C10.6753 11.643 10.7323 11.661 10.7907 11.6606C10.8518 11.6606 10.9111 11.6405 10.9597 11.6036C11.4205 11.2969 11.9769 11.1676 12.5257 11.2396C12.5973 11.2448 12.6682 11.2224 12.7237 11.1768C12.7792 11.1313 12.8151 11.0662 12.8239 10.9949C12.8328 10.9237 12.8139 10.8518 12.7713 10.794C12.7286 10.7363 12.6654 10.6971 12.5947 10.6846C11.9 10.5959 11.1969 10.7653 10.6187 11.1606C10.5725 11.1963 10.5386 11.2455 10.5218 11.3015C10.505 11.3574 10.5062 11.4172 10.5252 11.4724C10.5442 11.5276 10.58 11.5755 10.6277 11.6092Z" fill="#372128"/>
<path d="M10.4499 13.4901C10.6099 12.8501 11.1899 12.3701 11.8899 12.3701C12.6099 12.3701 13.2099 12.8901 13.3499 13.5601C13.3799 13.7101 13.2599 13.8501 13.1099 13.8501H10.7399C10.5499 13.8501 10.3999 13.6701 10.4499 13.4901Z" fill="white"/>
<path d="M18.41 13.4901C18.25 12.8501 17.67 12.3701 16.97 12.3701C16.25 12.3701 15.65 12.8901 15.51 13.5601C15.48 13.7101 15.6 13.8501 15.75 13.8501H18.12C18.31 13.8501 18.46 13.6701 18.41 13.4901Z" fill="white"/>
<path d="M11.1599 13.5999C11.1599 13.0799 11.5899 12.6499 12.1099 12.6499C12.6299 12.6499 13.0599 13.0799 13.0499 13.5999C13.0499 13.6899 13.0399 13.7699 13.0199 13.8499H11.1899C11.1699 13.7699 11.1599 13.6899 11.1599 13.5999Z" fill="#7D4533"/>
<path d="M17.7 13.5999C17.7 13.0799 17.27 12.6499 16.75 12.6499C16.23 12.6499 15.8 13.0799 15.81 13.5999C15.81 13.6899 15.82 13.7699 15.84 13.8499H17.67C17.69 13.7699 17.7 13.6899 17.7 13.5999Z" fill="#7D4533"/>
<path d="M12.1101 13.0601C12.4101 13.0601 12.6501 13.3001 12.6501 13.6001C12.6501 13.6901 12.6301 13.7801 12.5901 13.8501H11.6301C11.5901 13.7801 11.5701 13.6901 11.5701 13.6001C11.5701 13.3001 11.8101 13.0601 12.1101 13.0601Z" fill="black"/>
<path d="M16.75 13.0601C16.45 13.0601 16.21 13.3001 16.21 13.6001C16.21 13.6901 16.23 13.7801 16.27 13.8501H17.23C17.27 13.7801 17.29 13.6901 17.29 13.6001C17.29 13.3001 17.05 13.0601 16.75 13.0601Z" fill="black"/>
<path d="M11.9499 13.2301C11.9499 13.3239 11.8738 13.4001 11.7799 13.4001C11.686 13.4001 11.6099 13.3239 11.6099 13.2301C11.6099 13.1362 11.686 13.0601 11.7799 13.0601C11.8738 13.0601 11.9499 13.1362 11.9499 13.2301Z" fill="white"/>
<path d="M16.63 13.2301C16.63 13.3239 16.5539 13.4001 16.46 13.4001C16.3662 13.4001 16.29 13.3239 16.29 13.2301C16.29 13.1362 16.3662 13.0601 16.46 13.0601C16.5539 13.0601 16.63 13.1362 16.63 13.2301Z" fill="white"/>
<path d="M20.2 5.60986L25.0399 7.01047L25.8789 7.6991L25.793 8.15222L24.705 8.18465L20.8 7.05986C20.3 6.90986 19.98 6.35986 20.13 5.85986L20.2 5.60986Z" fill="#D3D3D3"/>
<path d="M24.29 7.72012C24.4557 7.72012 24.59 7.5858 24.59 7.42012C24.59 7.25443 24.4557 7.12012 24.29 7.12012C24.1243 7.12012 23.99 7.25443 23.99 7.42012C23.99 7.5858 24.1243 7.72012 24.29 7.72012Z" fill="#9B9B9B"/>
<path d="M25.0465 7.0046L24.7073 8.18217L25.3298 8.36993C25.3398 8.62993 25.4098 8.89993 25.5498 9.14993C26.0398 10.0399 27.1598 10.3599 28.0498 9.86993C28.9398 9.37993 29.2598 8.25993 28.7698 7.36993C28.2798 6.47993 27.1598 6.14993 26.2698 6.63993C26.0198 6.77993 25.8198 6.95993 25.6698 7.17993L25.0465 7.0046ZM26.7498 7.50993C27.1598 7.27993 27.6798 7.42993 27.9098 7.84993C28.1398 8.25993 27.9898 8.77993 27.5698 9.00993C27.1598 9.23993 26.6398 9.08993 26.4098 8.66993C26.1798 8.25993 26.3398 7.73993 26.7498 7.50993Z" fill="#F8312F"/>
<path d="M23.34 8.47992L23.5249 7.84482L24.7033 8.18422L24.52 8.82992C24.74 8.97992 24.92 9.17992 25.06 9.42992C25.55 10.3199 25.23 11.4399 24.34 11.9299C23.45 12.4199 22.33 12.0899 21.84 11.1999C21.35 10.3099 21.67 9.18992 22.56 8.69992C22.81 8.55992 23.08 8.48992 23.34 8.47992ZM24.21 9.88992C23.98 9.46992 23.46 9.31992 23.05 9.54992C22.63 9.77992 22.48 10.2999 22.71 10.7099C22.94 11.1299 23.46 11.2799 23.87 11.0499C24.29 10.8199 24.44 10.2999 24.21 9.88992Z" fill="#F8312F"/>
</svg>

<svg xmlns="http://www.w3.org/2000/svg" width="32" height="32" fill="none"><path fill="#D3D3D3" d="m24.93 3-1.4 4.84.154 1.058.238.114.786-.832 1.132-3.93a.935.935 0 0 0-.65-1.17L24.93 3Z"/><path fill="#2D242D" d="M23.65 5.21c.22-.29.67-.13.67.23 0 1.44-2.2 3.04-3.16 3.5.03.54-.04 1.56-.35 2.01-.19.27-.29.59-.29.92v.55c-.09-.066-2.02 1.42-2.02 1.42s.822 2.263 2.03 1.38v.98c0 .9-.54 1.71-1.35 2.07.346-.753-6.37-1.575-9.44.03a2.264 2.264 0 0 1-1.42-2.1v-.97c.602.424 1.42-1.39 1.42-1.39S9 12.5 8.32 12.4v-.53c0-.33-.1-.65-.29-.92-.51-.74-.6-1.73-.15-2.57.31-.58.81-.98 1.38-1.18.61-.21 1.12-.62 1.46-1.16a2.462 2.462 0 0 1 3.06-.95c.41.17.87.17 1.27 0a2.479 2.479 0 0 1 3.09.99c.22.35.51.64.86.85 1.79.63 4.13-1.05 4.65-1.72Z"/><path fill="#FF6723" d="M3 30c0-5.799 4.701-10.5 10.5-10.5h2C21.299 19.5 26 24.201 26 30H3Z"/><path fill="#8B5C56" d="M14.42 22.5c-1.23 0-2.23-1-2.23-2.23V18.8h4.47v1.47a2.247 2.247 0 0 1-2.24 2.23ZM11.07 13.82a1.74 1.74 0 1 1-3.48 0 1.74 1.74 0 0 1 3.48 0ZM21.25 13.82a1.74 1.74 0 1 1-3.48 0 1.74 1.74 0 0 1 3.48 0Z"/><path fill="#966661" d="M9.047 12.1h.003v-.86a3.54 3.54 0 0 1 3.54-3.54h1.35c.29 0 .55.18.65.44.42.92 1.34 1.51 2.35 1.51h1.48c.81.04 1.45.7 1.47 1.51l-.06.96c.004 0 .007.002.01.003l-.313 4.957a4.123 4.123 0 0 1-4.086 3.57h-1.984a4.115 4.115 0 0 1-4.086-3.57l-.324-4.98Z"/><path fill="#75443E" d="m14.03 13.52-.55 1.78c-.11.36.16.73.54.73h.81c.38 0 .65-.37.54-.73l-.55-1.78c-.11-.39-.67-.39-.79 0Z"/><path fill="#990838" d="M14.43 17.04c-.56 0-1.09-.14-1.54-.37-.15-.08-.31.09-.22.24.37.58 1.02.96 1.76.96s1.39-.38 1.76-.96c.09-.14-.07-.32-.22-.24-.45.23-.97.37-1.54.37Z"/><path fill="#372128" d="M17.9 11.604a.28.28 0 0 0 .342-.443 2.824 2.824 0 0 0-1.976-.476.28.28 0 1 0 .068.555c.549-.07 1.104.06 1.567.364ZM10.628 11.61a.278.278 0 0 0 .332-.006 2.289 2.289 0 0 1 1.566-.364.28.28 0 0 0 .069-.555 2.86 2.86 0 0 0-1.976.476.28.28 0 0 0 .009.448Z"/><path fill="#fff" d="M10.45 13.49c.16-.64.74-1.12 1.44-1.12.72 0 1.32.52 1.46 1.19.03.15-.09.29-.24.29h-2.37c-.19 0-.34-.18-.29-.36ZM18.41 13.49c-.16-.64-.74-1.12-1.44-1.12-.72 0-1.32.52-1.46 1.19-.03.15.09.29.24.29h2.37c.19 0 .34-.18.29-.36Z"/><path fill="#7D4533" d="M11.16 13.6c0-.52.43-.95.95-.95s.95.43.94.95c0 .09-.01.17-.03.25h-1.83c-.02-.08-.03-.16-.03-.25ZM17.7 13.6c0-.52-.43-.95-.95-.95s-.95.43-.94.95c0 .09.01.17.03.25h1.83c.02-.08.03-.16.03-.25Z"/><path fill="#000" d="M12.11 13.06c.3 0 .54.24.54.54 0 .09-.02.18-.06.25h-.96a.514.514 0 0 1-.06-.25c0-.3.24-.54.54-.54ZM16.75 13.06c-.3 0-.54.24-.54.54 0 .09.02.18.06.25h.96c.04-.07.06-.16.06-.25 0-.3-.24-.54-.54-.54Z"/><path fill="#fff" d="M11.95 13.23a.17.17 0 1 1-.34 0 .17.17 0 0 1 .34 0ZM16.63 13.23a.17.17 0 1 1-.34 0 .17.17 0 0 1 .34 0Z"/><path fill="#D3D3D3" d="m20.2 5.61 4.84 1.4.839.69-.086.452-1.088.033L20.8 7.06c-.5-.15-.82-.7-.67-1.2l.07-.25Z"/><path fill="#9B9B9B" d="M24.29 7.72a.3.3 0 1 0 0-.6.3.3 0 0 0 0 .6Z"/><path fill="#F8312F" d="m25.047 7.005-.34 1.177.623.188c.01.26.08.53.22.78a1.84 1.84 0 0 0 3.22-1.78 1.843 1.843 0 0 0-2.5-.73c-.25.14-.45.32-.6.54l-.623-.175Zm1.703.505c.41-.23.93-.08 1.16.34.23.41.08.93-.34 1.16-.41.23-.93.08-1.16-.34a.857.857 0 0 1 .34-1.16ZM23.34 8.48l.185-.635 1.178.34-.183.645c.22.15.4.35.54.6.49.89.17 2.01-.72 2.5-.89.49-2.01.16-2.5-.73a1.84 1.84 0 0 1 .72-2.5c.25-.14.52-.21.78-.22Zm.87 1.41a.849.849 0 0 0-1.16-.34c-.42.23-.57.75-.34 1.16.23.42.75.57 1.16.34.42-.23.57-.75.34-1.16Z"/></svg>
